!!!COM: Music21
!!!OTL: Muiñeira
!!!OMV: pezas_muineiras_muineira-3_muineira-partitura.musicxml
**kern
*I"Bagpipes
*I'Bag
*clefG^2
*k[]
*M6/8
=1
!LO:TX:a:t=Presto
*MM180
!LO:TX:a:t=[quarter]=180
2r
16r
16cccKL
8cccJ
=||
8bbL
8ccc
8bbJ
8aaL
8bb
8aaJ
=
2gg
8ffL
8eeJ
=
8ddL
8ee
8ffJ
8ffL
8ee
8ddJ
=
8ee
4cc
4ccc
8ccc
=||
8bbL
8ccc
8bbJ
8aaL
8bb
8aaJ
=
2gg
8ffL
8eeJ
!!linebreak:original
=
8ddL
8ee
8ffJ
8ffL
8ee
8ddJ
=
[2cc
8ccL]
8ddJ
=||
4ee
8cc
4dd
8b
=
2cc
8ccL
8ddJ
!!linebreak:original
=
8eeL
8dd
8eeJ
8ggL
8ff
8eeJ
=
8ee
4.cc
8ccL
8ddJ
=
4ee
8cc
4dd
8b
=
4.cc
8ddL
8cc
8ddJ
=
8eeL
8dd
8eeJ
8ggL
8ff
8ddJ
=
2cc
8ccL
8ddJ
=||
4ee
8cc
4dd
8b
=
2cc
8ccL
8ddJ
!!linebreak:original
=
8eeL
8dd
8eeJ
8ggL
8ff
8eeJ
=
8ee
4.cc
8ccL
8ddJ
=
4ee
8cc
4dd
8b
=
4.cc
8ddL
8cc
8ddJ
=
8eeL
8dd
8eeJ
8ggL
8ff
8ddJ
!!linebreak:original
=||
4.cc
8r
8cccL
8cccJ
=||
4.cc
8r
4r
==
*-
